!!!!SEGMENT: pl-wtm--r-2308--pc0_troschel-wilhelm--sama-jedna-pc0.krn
!!!cenid: 18xx:2267a
!!!COM: Troschel, Wilhelm
!!!COM-rismid: pe30024099
!!!CDT: 1823/08/23-1887/03/02
!!!CNT: Polish
!!!GTL: Sama jedna
!!!OTL: [pre correcturam]
!!!PDT:
!!!AGN:
!!!SMS-siglum: PL-Wtm
!!!SMS-shelfmark: R 2308
!!!SMS-shelfwork: G
!!!SMS-variant:
!!!SMS-altvar:
!!!NIFC-rismid: 1001114207
!!!URL-scan: http://repozytorium.nifc.pl/skany/pl-wtm-nut--r2308
!!!ONB-nifc:
**kern	**kern	**dynam	**kern	**text	**text	**dynam
*part2	*part2	*part2	*part1	*part1	*part1	*part1
*staff3	*staff2	*	*staff1	*staff1	*staff1	*
*I"Fortepian	*I"Fortepian	*	*I"Śpiew	*	*	*
*clefF4	*clefG2	*	*clefG2	*	*	*
*k[b-e-a-]	*k[b-e-a-]	*	*k[b-e-a-]	*	*	*
*E-:	*E-:	*	*E-:	*	*	*
*M3/4	*M3/4	*	*M3/4	*	*	*
=1	=1	=1	=1	=1	=1	=1
*all\right	*all\right	*	*all\right	*	*	*
*2\right	*2\right	*	*2\right	*	*	*
!	!	!	!LO:TX:a:i:t=Tempo Mazurka	!	!	!
!	!LO:TX:a:i:t=z Werwą	!	!LO:TX:a:i:t=Wiersz L. Niemojowskiego \nMuzyka W. Troschla	!	!	!
!	!	!LO:DY:rj	!	!	!	!
4BB- 4BBB-'<\	8.B-<L 8.F<'>/	p	2.r	.	.	.
.	16An<'>/Jk	.	.	.	.	.
4BB- 4BBB-'<\	4B-< 4F<'>/	.	.	.	.	.
4BB- 4BBB-'<\	4c-X< 4G-X< 4E-<'>/	.	.	.	.	.
=2	=2	=2	=2	=2	=2	=2
4BB- 4BBB-'</	4e- 4An 4G-X'>/	.	2.r	.	.	.
4BB- 4BBB-'<\	4d 4B- 4F<'>/	.	.	.	.	.
!	!LO:TX:b:i:t=poco a poco cre - scen - do:problem:dynamics with line extensions	!LO:HP:b:i:t=poco a poco cre - scen - do:ext=cd	!	!	!	!
4BB- 4BBB-'^^>\	4f 4d 4A-X'>^^>/	<	.	.	.	.
=3	=3	=3	=3	=3	=3	=3
4BB- 4BBB-/	8e-/L	.	2.r	.	.	.
.	8f/J	.	.	.	.	.
.	16qqg-X/LL	.	.	.	.	.
.	16qqa-/JJ	.	.	.	.	.
4An 4G-X 4E- 4BB-\	4g-/	.	.	.	.	.
4A 4G- 4E- 4BB-\	8f/L	.	.	.	.	.
.	8e-/J	.	.	.	.	.
=4	=4	=4	=4	=4	=4	=4
4B- 4F 4BB-'>\	8.d/L	.	2.r	.	.	.
.	16e-/Jk	.	.	.	.	.
4B- 4F 4BB-'>\	4f 4d'>/	.	.	.	.	.
4B- 4F 4BB-'>^^>\	4b- 4d'>^^>/	.	.	.	.	.
!!LO:LB:g=original
=5	=5	=5	=5	=5	=5	=5
*	*^	*	*	*	*	*
4BB-\	8cc/L	4e-\	.	2.r	.	.	.
.	8ee-/J	.	.	.	.	.	.
4c 4A- 4E-\	4ee-/	2e-\	.	.	.	.	.
4c 4A- 4E-\	8dd/L	.	.	.	.	.	.
.	8cc/J	.	.	.	.	.	.
*	*v	*v	*	*	*	*	*
=6	=6	=6	=6	=6	=6	=6
.	16qqb-/LL	.	.	.	.	.
.	16qqcc/JJ	.	.	.	.	.
4BB-\	8.b-L 8.g/	.	2.r	.	.	.
.	16gJk 16e-/	[	.	.	.	.
4B- 4G 4E-'\	4b- 4g'/	.	.	.	.	.
4B- 4G 4E-'\	4b- 4g'/	.	.	.	.	.
=7	=7	=7	=7	=7	=7	=7
*	*^	*	*	*	*	*
2BB- 2BBB-/	(<16a-/LL	8f\	.	2.r	.	.	.
.	32ff/JJk)	.	.	.	.	.	.
.	32rff	.	.	.	.	.	.
.	8rff	8rf	.	.	.	.	.
.	4.a- 4.f^</	2ryy	.	.	.	.	.
4C-X 4CC-X^^</	.	.	.	.	.	.	.
.	8g 8en/	.	.	.	.	.	.
*	*v	*v	*	*	*	*	*
=8	=8	=8	=8	=8	=8	=8
.	8qb-/	.	.	.	.	.
2BB- 2BBB-/	8a-L 8f/	.	2.r	.	.	.
.	8gJ 8en/	.	.	.	.	.
.	4.a- 4.f^</	.	.	.	.	.
4C-X 4CC-X^^</	.	.	.	.	.	.
.	8g 8e/	.	.	.	.	.
!!LO:LB:g=original
=9	=9	=9	=9	=9	=9	=9
!	!LO:TX:b:i:t=molto	!	!	!	!	!
4BB- 4BBB-/	8a-L 8f/	.	2.r	.	.	.
.	8B-/	<	.	.	.	.
8C\L	8c/	.	.	.	.	.
8BB-\	8B-/	.	.	.	.	.
8D\	8d/	.	.	.	.	.
8BB-\J	8B-/J	.	.	.	.	.
=10	=10	=10	=10	=10	=10	=10
!	!LO:TX:a:i:t=ritard&colon;	!	!	!	!	!
8E-^^>\L	8e-^^</L	.	2.r	.	.	.
8BB-^^>\	8B-^^</	[	.	.	.	.
8F^^>\	8f^^</	.	.	.	.	.
8BB-^^>\	8B-^^</	.	.	.	.	.
8F#X^^>\	8f#X^^</	.	.	.	.	.
8BB-^^>\J	8B-^^</J	.	.	.	.	.
=11	=11	=11	=11	=11	=11	=11
!	!LO:TX:a:i:t=a tempo	!	!LO:TUP:a:problem:klamra łukowa	!	!	!
!	!	!LO:DY:rj	!	!	!	!LO:DY:b:rj
*ped	*	*	*	*	*	*
4E- 4EE-^<\	4g 4e- 4B- 4G^</	f	12g/L	Grzmi	.	f
.	.	.	12a-/J	.	.	.
.	.	.	12an/	mu-	.	.
4BB- 4BBB-^</	4b- 4g 4e- 4B-^</	.	4b-\	-zy-	.	.
4GG 4GGG^</	4ee- 4b- 4e-^</	.	4ee-\	-ka,	.	.
*Xped	*	*	*	*	*	*
=12	=12	=12	=12	=12	=12	=12
*	*^	*	*	*	*	*
*ped	*	*	*	*	*	*	*
8AA- 8AAA-/	8gg/L	8cc 8a-\	.	8.gg\L	wrą	.	.
8r	16rff	8rd	.	.	.	.	.
.	16ff/Jk	.	.	16ff\Jk	.	.	.
!	!	!	!	!LO:TX:a:t=P:problem:akcent zapisany ołówkiem	!	!	!
*	*	*	*^	*	*	*	*
!	!	!	!	!LO:DY:b=2	!	!	!	!
2f 2c 2A-\	2cc/	2a-\	.	sf	4.cc^>\	ła-	.	.
*	*	*	*v	*v	*	*	*	*
*Xped	*	*	*	*	*	*	*
.	.	.	.	8ff\	-wy,	.	.
*	*v	*v	*	*	*	*	*
!!LO:LB:g=original
=13	=13	=13	=13	=13	=13	=13
2BB- 2BBB-/	4r	.	8.ee-\	Wszę-	.	.
.	.	.	16dd\	-dzie	.	.
.	4a- 4d 4B-/	.	4a-/	lśni	.	.
.	.	.	16qqb-/LL	.	.	.
.	.	.	16qqa-/JJ	.	.	.
4r	4a- 4d 4B-/	.	8g/	.	.	.
.	.	.	8a-/	roz-	.	.
=14	=14	=14	=14	=14	=14	=14
2E- 2EE-/	4r	.	8.cc\	-ko-	.	.
.	.	.	16b-\	-szny	.	.
.	4g 4e- 4B-/	.	4g/	czar,	.	.
4r	4g 4e- 4B-/	.	4r	.	.	.
=15	=15	=15	=15	=15	=15	=15
!	!	!	!	!	!	!LO:DY:b:rj
2.C 2.CC/	4r	p	8g/	A	.	p
.	.	.	8a-/	ma-	.	.
.	4a- 4e- 4A-/	.	4.ee-\	-zu-	.	.
.	4a- 4e- 4A-/	.	.	.	.	.
.	.	.	8a-\	-rek	.	.
=16	=16	=16	=16	=16	=16	=16
2.BB- 2.BBB-/	4r	.	8g/L	do-	.	.
.	.	.	8e-/J	.	.	.
.	4g 4e- 4B-/	.	4cc\	-bra-	.	.
.	4g 4e- 4B-/	.	4b-\	-ny	.	.
!!LO:PB:g=original
=17	=17	=17	=17	=17	=17	=17
.	.	.	16qqa-/LL	.	.	.
.	.	.	16qqb-/JJ	.	.	.
2.BB- 2.BBB-/	4r	.	8a-/	ko-	.	.
.	.	.	8g/	-ło	.	.
.	4a- 4d 4B-/	.	4.a-/	splotł	.	.
.	4a- 4d 4B-/	.	.	.	.	.
.	.	.	8an/	z po-	.	.
=18	=18	=18	=18	=18	=18	=18
.	.	.	8qcc/	.	.	.
2.GG 2.GGG/	4r	.	8.b-\	-wa-	.	.
.	.	.	16an\	-bnych	.	.
.	4b- 4e- 4B-/	.	4b-\	par;	.	.
.	4b- 4e- 4B-/	.	4r	.	.	.
=19	=19	=19	=19	=19	=19	=19
*	*^	*	*	*	*	*
!	!	!	!	!	!	!	!LO:DY:b:rj
*ped	*	*	*	*	*	*	*
4AA- 4AAA-/	8bnL 8g/	4ryy	f	8bn\	A	.	f
.	8ccJ 8a-/	.	.	8cc\	ma-	.	.
4a- 4c 4A-\	4.gg/	2cc 2a-\	sf	4.gg^^>\	-zu-	.	.
4a- 4c 4A-\	.	.	.	.	.	.	.
*Xped	*	*	*	*	*	*	*
.	8ff/	.	.	8ff\	-rek	.	.
=20	=20	=20	=20	=20	=20	=20	=20
!	!LO:TUP:a:problem:klamra łukowa	!	!	!LO:TUP:a:problem:klamra łukowa	!	!	!
4BB- 4BBB-/	12dd/L	4g\	.	12dd\L	do-	.	.
.	12ff/	.	.	12ff\	.	.	.
.	12ee-/J	.	.	12ee-\J	.	.	.
4e- 4B- 4G\	4b-/	2ryy	.	4b-/	-bra-	.	.
4e- 4B- 4G\	4g/	.	.	4g/	-ny	.	.
*	*v	*v	*	*	*	*	*
!!LO:LB:g=original
=21	=21	=21	=21	=21	=21	=21
4BB- 4BBB-/	4r	.	8b-\	ko-	.	.
.	.	.	8bn\	-ło	.	.
4r	4d 4B- 4A-/	.	8cc\	splotł	.	.
.	.	.	8g/	z po-	.	.
4BB- 4BBB-/	4d 4B- 4A-/	.	8.a-/	-wa-	.	.
.	.	.	16d/	-bnych	.	.
=22	=22	=22	=22	=22	=22	=22
4EE-/	4e- 4B- 4G/	.	4e-/	par.	.	.
8EE- 8EEE-/	8ee- 8b- 8g 8e-/	sf	4r	.	.	.
8r	8r	.	.	.	.	.
!LO:TX:a:t=P:problem:+ dopisany niebieską kredką	!	!	!	!	!	!
!LO:TX:b:t=+:color=blue	!	!	!	!	!	!
4r	4r	.	4r	.	.	.
=23	=23	=23	=23	=23	=23	=23
!	!	!	!LO:TX:a:i:t=smętnie	!	!	!LO:DY:b:rj
2.BBn 2.BBBn/	4r	p	8g/	Ja	.	p
.	.	.	8d/	zaś	.	.
.	4g 4d 4G/	.	4.g/	sie-	.	.
.	4g 4d 4G/	.	.	.	.	.
.	.	.	8f/	-dzę	.	.
=24	=24	=24	=24	=24	=24	=24
2.C 2.CC/	4r	.	8e-/L	na	.	.
.	.	.	8f/J	.	.	.
.	4e- 4c 4G/	.	4g/	stro-	.	.
.	4e- 4c 4G/	.	4cc\	-nie,	.	.
!!LO:LB:g=original
=25	=25	=25	=25	=25	=25	=25
!	!	!	!LO:TX:t=P:problem:łuk dopisany ołówkiem	!	!	!
2.D 2.DD/	4r	.	(>8bn\	Żal	.	.
.	.	.	8cc\	tęs-	.	.
.	4f 4Bn 4G/	.	4dd\	-kno-	.	.
.	.	.	8qff/	.	.	.
.	4f 4B 4G/	.	8ee-\	.	.	.
.	.	.	8dd\)	-tą	.	.
=26	=26	=26	=26	=26	=26	=26
.	.	.	8qdd/	.	.	.
2.E- 2.EE-/	4r	.	8.cc\	w pier-	.	.
.	.	.	16bn\	-si	.	.
!	!	!	!	!	!	!LO:HP:b
.	4e- 4c 4G/	.	(>4cc\	gra,	.	>
.	4g 4e- 4c/	.	4g/)	.	.	]]
=27	=27	=27	=27	=27	=27	=27
2.F 2.FF/	4r	.	8a-X/	Li-	.	.
.	.	.	8bn/	-ce	.	.
.	4a- 4c/	.	4cc^^>\	ża-	.	.
.	4a- 4f 4c/	.	8a-\L	-rem	.	.
.	.	.	8f\J	.	.	.
!!LO:LB:g=original
=28	=28	=28	=28	=28	=28	=28
2.E- 2.EE-/	4r	.	8g/L	mi	.	.
.	.	.	8bn/J	.	.	.
!	!	!	!LO:TX:t=P:problem:łuk dorysowany ołówkiem	!	!	!
.	4g 4c/	.	(>4cc\	pło-	.	.
!	!LO:TX:a:t=P:problem:× dopisane ołówkiem	!	!	!	!	!
!	!LO:TX:b:t=×:color=grey	!	!	!	!	!
.	4g 4e- 4c/	.	4g/)	-nie,	.	.
=29	=29	=29	=29	=29	=29	=29
2D 2DD/	4r	.	8f/	W rzę-	.	.
.	.	.	8g/	-sach	.	.
.	.	.	8qb-/	.	.	.
.	4a- 4f 4c/	.	(<4a-/	smu-	.	.
4GG/	4g 4f 4Bn/	.	4Bn/)	-tku	.	.
=30	=30	=30	=30	=30	=30	=30
2.C 2.CC/	4r	.	8c/	błysz-	.	.
.	.	.	8e-/	-czy	.	.
.	4g 4e- 4c/	.	4g/	łza.	.	.
.	4g 4e- 4c/	.	4r	.	.	.
!!LO:PB:g=original
=31	=31	=31	=31	=31	=31	=31
!	!	!	!	!	!	!LO:HP:a
2.F 2.FF/	4r	.	8a-\	Li-	.	<
.	.	.	8bn\	-ce	.	.
.	4a- 4f 4c/	<	4.cc\	ża-	.	.
.	4a- 4f 4c/	[[	.	.	.	.
.	.	.	8dd\	-rem	.	[
=32	=32	=32	=32	=32	=32	=32
2.G 2.GG\	4r	.	8ee-\L	mi	.	.
.	.	.	8cc\J	.	.	.
.	4g 4e- 4c/	.	(<4g/	pło-	.	.
.	4g 4e- 4c/	.	4e-/)	-nie,	.	.
=33	=33	=33	=33	=33	=33	=33
!	!LO:TX:a:i:t=poco rit&colon;	!	!	!	!	!LO:HP:a
2.G 2.GG\	4r	>	8d/	W rzę-	.	>
.	.	.	8e-/	-sach	.	.
.	4f#X 4d 4c/	.	4d/	smu-	.	.
.	4f# 4d 4c/	]	4an/	-tku	.	]
!!LO:LB:g=original
=34	=34	=34	=34	=34	=34	=34
.	.	.	8qan/	.	.	.
2.G 2.GG\	4r	.	8g/	błysz-	.	.
.	.	.	8f#X/	-czy	.	.
.	4g 4d 4Bn/	.	2g/	łza.	.	.
.	4g 4d 4B/	.	.	.	.	.
=35	=35	=35	=35	=35	=35	=35
!	!LO:TX:a:i:t=in tempo	!	!	!	!	!
4Bn 4G 4F 4C\	8.ddL 8.bn\	.	2.r	.	.	.
.	16ee-Jk 16cc\	.	.	.	.	.
!	!LO:TX:b:i:t=cre_scen_do:problem:dynamics with line extensions	!LO:HP:b:i:t=cre_scen_do:ext=ud	!	!	!	!
4B 4G 4F 4C\	4ff 4dd\	<	.	.	.	.
4B 4G 4F 4C\	8ee-L 8cc\	.	.	.	.	.
.	8ddJ 8b\	.	.	.	.	.
=36	=36	=36	=36	=36	=36	=36
4c 4G 4E- 4C\	(>8.ee-L 8.cc\	.	2.r	.	.	.
.	16ff#XJk 16dd\	.	.	.	.	.
4c 4G 4E- 4C\	2gg 2ee-\)	.	.	.	.	.
4c 4G 4E- 4C\	.	.	.	.	.	.
=37	=37	=37	=37	=37	=37	=37
4c 4G 4E- 4C\	(>8.aa-L 8.ff\	.	2.r	.	.	.
.	16bbnJk 16gg\	[	.	.	.	.
4c 4G 4E- 4C\	4ccc 4aa-\	.	.	.	.	.
4c 4G 4E- 4C\	8ffL 8dd\)	.	.	.	.	.
.	8aa-J 8ff\	.	.	.	.	.
!!LO:LB:g=original
=38	=38	=38	=38	=38	=38	=38
.	8qaa-/	.	.	.	.	.
4C\	8.ggL 8.ee-\	.	2.r	.	.	.
.	16ee-Jk 16cc\	.	.	.	.	.
4c 4G 4E-\	2gg 2ee-\	.	.	.	.	.
4c 4G 4E-\	.	.	.	.	.	.
=39	=39	=39	=39	=39	=39	=39
!	!	!LO:DY:rj	!	!	!	!
4G\ 4D\ 4BBn\	8.dd\L	f	2.r	.	.	.
.	16ff#X\Jk	.	.	.	.	.
4G\ 4D\ 4BB\	2gg 2g^>\	.	.	.	.	.
4G\ 4D-X\ 4BB-X^>\	.	.	.	.	.	.
=40	=40	=40	=40	=40	=40	=40
4F 4C 4AAn/	8.cc\L	.	2.r	.	.	.
.	16een\Jk	.	.	.	.	.
4F 4C 4AA/	2ff 2f^>\	.	.	.	.	.
4F 4C 4AA-X^>/	.	.	.	.	.	.
=41	=41	=41	=41	=41	=41	=41
*	*^	*	*	*	*	*
4G 4C 4GG\	8.ee-/L	4e-\	.	2.r	.	.	.
.	16cc/Jk	.	.	.	.	.	.
4G 4C 4GG\	4.ee-/	2e-\	.	.	.	.	.
4G 4E- 4C 4GG\	.	.	.	.	.	.	.
.	8cc/	.	.	.	.	.	.
!!LO:LB:g=original
=42	=42	=42	=42	=42	=42	=42	=42
*	*	*	*^	*	*	*	*
4G 4D 4GG\	8.bn/L	4d\	.	.	2.r	.	.	.
!	!	!	!	!LO:HP:b=2	!	!	!	!
.	16dd/Jk	.	.	>	.	.	.	.
4G 4D 4BBn 4GG\	(>4.dd/	2d\	>	]]	.	.	.	.
4G 4D 4BB 4GG\	.	.	.	.	.	.	.	.
!	!LO:TX:a:i:t=Io tempo	!	!	!	!LO:TX:a:i:t=Io tempo.	!	!	!LO:DY:b
.	8g/)	.	.	.	.	.	.	ff
*	*	*	*v	*v	*	*	*	*
=43	=43	=43	=43	=43	=43	=43	=43
*	*	*	*^	*	*	*	*
!	!	!	!LO:DY:b:rj	!LO:DY:b=2:rj	!	!	!	!
*ped	*	*	*	*	*	*	*	*
4F 4FF\	8.dd/L	4a- 4d\	ff	ff	8.dd\	Su-	.	.
*	*	*	*v	*v	*	*	*	*
.	16cc/Jk	.	.	16cc\	-ną	.	.
!	!	!	!	!LO:TX:a:t=P:problem:akcent zapisany ołówkiem	!	!	!
4B- 4F\	4a- 4d/	4ryy	.	4a-^>/	pa-	.	.
4BB- 4BBB-\	8f/L	4A-\	.	8f/L	-ry	.	.
*Xped	*	*	*	*	*	*	*
.	8d/J	.	.	8d/J	.	.	.
*	*v	*v	*	*	*	*	*
=44	=44	=44	=44	=44	=44	=44
*ped	*	*	*	*	*	*
4EE-/	(<8.e-L 8.G/	.	(<16e-'/LL	po	.	.
.	.	.	16g'/	.	.	.
.	.	.	16b-'/	.	.	.
.	16gJk 16B-/)	.	16ee-'/JJ)	.	.	.
4B- 4G 4E-\	4b- 4e-/	.	4gg\	sa-	.	.
4B- 4G 4E-\	4ee- 4g/	.	4ee-\	-li,	.	.
*Xped	*	*	*	*	*	*
!!LO:PB:g=original
=45	=45	=45	=45	=45	=45	=45
*ped	*	*	*	*	*	*
4AA- 4AAA-/	8.ddL 8.bn\	.	8.dd\	w dłu-	.	.
.	16ffJk 16dd\	.	16ff\	-gą	.	.
4c 4A- 4E-\	4ee- 4cc\	.	4ee-\	wstę-	.	.
4c 4A- 4E-\	4cc 4a-\	.	4dd\	-gę	.	.
*Xped	*	*	*	*	*	*
=46	=46	=46	=46	=46	=46	=46
.	8qcc/	.	.	.	.	.
4EE-/	8.b-L 8.g/	.	8.b-/	wi-	.	.
.	16gJk 16e-/	.	16g/	-ją	.	.
2B- 2G 2E-\	2b- 2g/	.	4b-/	się;	.	.
.	.	.	4r	.	.	.
=47	=47	=47	=47	=47	=47	=47
!	!	!LO:DY:rj	!	!	!	!LO:DY:a:rj
4D-X 4DD-X'>\	4b- 4g-X 4f-X'/	p	8b-\	Co-	.	p
!	!	!	!	!	!	!LO:HP:a
.	.	<	8b-\	-raz	.	<
4C-X 4CC-X'>\	4cc-X 4g-X 4e-'/	.	4cc-X'\	da-	.	.
4AA- 4AAA-'>/	4ccn 4a- 4g-'/	[[	4ccn'\	-lej	.	[[
!!LO:LB:g=original
=48	=48	=48	=48	=48	=48	=48
4D-X 4DD-X'>/	4dd-X 4a-X 4f'/	.	(>4dd-X'\	i	.	.
4BB- 4BBB-'>/	4ddn 4b- 4a-'/	.	4ddn'\	da-	.	.
!LO:TX:a:t=P:problem:× zapisane niebieską kredką	!	!	!	!	!	!
!LO:TX:b:t=×:color=blue	!	!	!	!	!	!
4E- 4EE-'>\	4ee- 4b- 4gn'/	.	4ee-'\)	-lej,	.	.
=49	=49	=49	=49	=49	=49	=49
!	!	!LO:DY:rj	!	!	!	!LO:DY:b:rj
8AA- 8AAA-/	8ff 8cc 8f\	f	8.ff\	Lek-	.	f
8r	8r	.	.	.	.	.
.	.	.	16cc\	-ko	.	.
!	!	!LO:DY:b=2	!	!	!	!LO:DY:b
2e- 2c-X 2A- 2F\	2cc-X 2a-X 2f/	sf	4.ff\	ra-	.	sf
.	.	.	8ee-\	-źno	.	.
=50	=50	=50	=50	=50	=50	=50
8BB- 8BBB-/	8ee- 8a- 8f/	.	8.ee-\	Każ-	.	.
8r	8r	.	.	.	.	.
.	.	.	16dd\	-da	.	.
2d 2B- 2A- 2F\	2dd 2a- 2f/	.	4dd\	mknie.	.	.
.	.	.	4r	.	.	.
!!LO:LB:g=original
=51	=51	=51	=51	=51	=51	=51
4c-X 4C-X'\	4ee- 4cc-X 4g-X 4e-'/	.	8.ee-\	Co-	.	.
.	.	.	16ee-\	-raz	.	.
4G-X 4GG-X'\	4dd-X 4b- 4f-X'/	.	4gg-X'\	da-	.	.
4A- 4AA-'\	4cc-X 4a- 4e-'/	.	4cc-X'\	-lej	.	.
=52	=52	=52	=52	=52	=52	=52
*	*	*^	*	*	*	*
!	!	!	!	!	!	!	!LO:HP:a
4A- 4AA-'>\	4cc-X 4a- 4e-'/	>	.	8.cc-X\L	i	.	>
.	.	.	.	16dd-X\Jk	.	.	.
!	!	!	!LO:HP:t=dim&colon;	!	!	!	!
4E- 4EE-'>/	4b- 4gn 4d-X'/	.	>	4ee-'\	da-	.	.
4F-X 4FF-X'>/	4a- 4f-X 4c-X'/	]	.	4a-'/	-lej	.	]
*	*	*v	*v	*	*	*	*
=53	=53	=53	=53	=53	=53	=53
!	!	!	!	!	!	!LO:HP:b
2BB-\	4r	<	8.gn/	Lek-	.	<
.	.	.	16a-/	-ko	.	.
.	4g 4e- 4B-/	[	4an^</	ra-	.	[
4r	4g 4e- 4B-/	.	4b-^</	-źno	.	.
!!LO:LB:g=original
=54	=54	=54	=54	=54	=54	=54
4r	8a-X 8dn/	.	8bn'\L	ka-	.	.
.	8r	.	8cc'\J	.	.	.
!	!	!	!	!	!	!LO:HP:b
(<4BB- 4BBB-/	(>4a- 4d 4B-/	>	8cc#X'\L	-żda	.	>
.	.	.	8dd'\J	.	.	.
8E- 8EE-\)	8g 8e- 8B-/)	.	8ee-'\	mknie.	.	]
8r	8r	]	8r	.	.	.
=55	=55	=55	=55	=55	=55	=55
*	*^	*	*	*	*	*
!	!LO:TX:a:i:t=rubato	!	!LO:DY:rj	!	!	!	!
*ped	*	*	*	*	*	*	*
4EE- 4EEE-/	8ee-/L	4dd-X 4g\	f	2.r	.	.	.
.	(>8een/J	.	.	.	.	.	.
2d-X 2B- 2E-\	(>4.gg/	2dd- 2g\	.	.	.	.	.
.	8ff/)	.	.	.	.	.	.
*Xped	*	*	*	*	*	*	*
=56	=56	=56	=56	=56	=56	=56	=56
*	*	*^	*	*	*	*	*
(<2EE-/	8ee-L 8cc/	4ryy	4ryy	.	2.r	.	.	.
.	8ddJ 8e-/	.	.	.	.	.	.	.
.	4dd-X/	2a-/	4f\	.	.	.	.	.
4E-\)	4cc/)	.	4e-\	.	.	.	.	.
*	*	*v	*v	*	*	*	*	*
!!LO:PB:g=original
=57	=57	=57	=57	=57	=57	=57	=57
*ped	*	*	*	*	*	*	*
(>8EE-\L	(>4.cc/	2.dn\	.	2.r	.	.	.
8BB-\J	.	.	.	.	.	.	.
4Dn\	.	.	.	.	.	.	.
.	8b-/L	.	.	.	.	.	.
*Xped	*	*	*	*	*	*	*
4A-\)	8en/	.	.	.	.	.	.
.	8f/J)	.	.	.	.	.	.
=58	=58	=58	=58	=58	=58	=58	=58
*ped	*	*	*	*	*	*	*
(>8EE-\L	(>4.a-/	2.d-X\	.	2.r	.	.	.
!LO:TX:a:i:t=poco rit&colon;	!	!	!	!	!	!	!
8BB-\J	.	.	.	.	.	.	.
4D-X\	.	.	>	.	.	.	.
.	8g/L	.	.	.	.	.	.
*Xped	*	*	*	*	*	*	*
4G\)	8f/	.	.	.	.	.	.
.	8f-X/J)	.	]]	.	.	.	.
*	*v	*v	*	*	*	*	*
=59||	=59||	=59||	=59||	=59||	=59||	=59||
*k[b-e-a-d-]	*k[b-e-a-d-]	*	*k[b-e-a-d-]	*	*	*
*^	*	*	*	*	*	*
!	!	!	!	!LO:TX:a:i:t=Spokojnie i nieco wolniej	!	!	!
(>4AA-/	2.AA-\	2.e- 2.c/	p	8e-/	Nikt	.	.
.	.	.	.	8f/	nie	.	.
4E-/	.	.	.	4g/	przy-	.	.
4A-/)	.	.	.	4a-/	-szedł	.	.
!!LO:LB:g=original
=60	=60	=60	=60	=60	=60	=60	=60
2G/	4r	2.f-X 2.d-/	.	4an\	za-	.	.
.	2AA-\	.	.	4cc\	-pro-	.	.
4G/	.	.	.	4b-\	-sić,	.	.
*v	*v	*	*	*	*	*	*
=61	=61	=61	=61	=61	=61	=61
2.A- 2.AA-\	4r	.	8cc\	Nikt	.	.
.	.	.	8dd-\	nie	.	.
.	(>4fn (<4Bn/	.	4ddn\	u-	.	.
.	4e- 4c/))	.	4ee-\	-jął	.	.
=62	=62	=62	=62	=62	=62	=62
4r	4g 4d-/	.	4ff\	dło-	.	.
2AA-/	4r	.	4ee-\	-ni	.	.
.	4g 4e- 4d-/	.	4b-\	w dłoń:	.	.
=63	=63	=63	=63	=63	=63	=63
4A- 4AA-\	4r	.	8cc\	Trza	.	.
.	.	.	8dd-\	sie-	.	.
4r	4a- 4e- 4c/	.	4ee-\	-ro-	.	.
4r	4a- 4e- 4c/	.	8a-\L	-ctwo	.	.
.	.	.	8b-\J	.	.	.
!!LO:LB:g=original
=64	=64	=64	=64	=64	=64	=64
4F 4FF\	4r	.	4cc\	swe	.	.
4r	4a- 4f 4c/	.	4b-\	zno-	.	.
4r	4a- 4f 4c/	.	4a-\	-sić,	.	.
=65	=65	=65	=65	=65	=65	=65
2.G 2.GG\	4r	.	8g/	I	.	.
.	.	.	8a-/	w przy-	.	.
!	!	!LO:HP:a	!	!	!	!
.	4e- 4c/	>	8g/	-szłoś-	.	.
.	.	.	8e-/	-ci	.	.
!	!	!LO:HP:a	!	!	!	!
.	4f 4Bn/	>	8d-/	pa-	.	.
.	.	]]	8g/	-trzyć	.	.
=66	=66	=66	=66	=66	=66	=66
(>4C\	[>4e- [<4c/	.	2g/	toń.	.	.
!	!	!LO:HP:b=2	!	!	!	!
4G\	(>8e-]L 8c/]	<	.	.	.	.
!	!LO:TX:b:i:t=I.	!	!	!	!	!
.	8g/	.	.	.	.	.
4e-\)	8bn/	.	4r	.	.	.
.	8cc/J)	[	.	.	.	.
!!LO:LB:g=original
=67	=67	=67	=67	=67	=67	=67
*	*^	*	*	*	*	*
!	!LO:TX:a:i:t=nieco żywiej	!	!LO:DY:rj	!	!	!	!
*ped	*	*	*	*	*	*	*
4r	(>8dd-/L	4b- 4en\	f	2.r	.	.	.
.	8cc/J	.	.	.	.	.	.
4B- 4En 4C'\	8cc/L	4cc\	.	.	.	.	.
.	8aa-/J	.	.	.	.	.	.
4B- 4E 4C'\	8aa-/L)	4b-\	.	.	.	.	.
*Xped	*	*	*	*	*	*	*
.	8een/J	.	.	.	.	.	.
=68	=68	=68	=68	=68	=68	=68	=68
*ped	*	*	*	*	*	*	*
4r	8.een/L	4b-\	.	2.r	.	.	.
.	16gg/Jk	.	.	.	.	.	.
4F 4C 4FF'\	4ff 4a-'\	2ryy	.	.	.	.	.
!	!	!	!	!	!	!	!LO:DY:b
4F 4C 4FF'\	4ff 4a-'\	.	.	.	.	.	p
*Xped	*	*	*	*	*	*	*
*	*v	*v	*	*	*	*	*
=69	=69	=69	=69	=69	=69	=69
2.BB-\	4r	p	8f/	Trza	.	.
.	.	.	8en/	sie-	.	.
.	4f 4d- 4B-/	.	8f/L	-ro-	.	.
.	.	.	8b-/J	.	.	.
.	4f 4d- 4B-/	.	8cc\L	-ctwo	.	.
.	.	.	8dd-\J	.	.	.
=70	=70	=70	=70	=70	=70	=70
.	.	.	8qdd-/	.	.	.
2.AA-/	4r	.	8cc\L	swe	.	.
!	!	!	!	!	!	!LO:HP:b
.	.	.	8bn\J	.	.	>
.	4f 4c/	.	(>4cc\	zno-	.	.
.	4f 4c/	.	4c/)	-sić,	.	]]
!!LO:PB:g=original
=71	=71	=71	=71	=71	=71	=71
4GG/	8.r	<	2.r	.	.	.
.	(<16cc/	.	.	.	.	.
4B- 4F 4D-\	8d-'/L)	.	.	.	.	.
.	16r	.	.	.	.	.
.	16cc/Jk	[[	.	.	.	.
4GG/	4b- 4f 4d-/	sf	.	.	.	.
=72	=72	=72	=72	=72	=72	=72
4C\	8.r	.	2.r	.	.	.
.	(<16b-/	.	.	.	.	.
4A- 4F\	8c/L)	>	.	.	.	.
.	16r	.	.	.	.	.
.	16b-/Jk	.	.	.	.	.
*	*	*^	*	*	*	*
4C\	4a- 4f 4c/	.	sf	.	.	.	.
*	*	*v	*v	*	*	*	*
=73	=73	=73	=73	=73	=73	=73
!LO:N:vis=2.	!	!	!	!	!	!
2C/	4r	.	(>8a-/	I	.	.
.	.	]	8g/	w przy-	.	.
!	!LO:TX:b:i:t=rit&colon;	!	!LO:TX:b:t=rit&colon;	!	!	!
.	4en 4B-	.	8f#X/	-szłoś-	.	.
.	.	.	8g/	-ci	.	.
4r	4e 4B-	.	8dd-\	patrz-	.	.
!LO:TX:a:t=P:problem:+ zapisany niebieską kredką	!	!	!	!	!	!
!LO:TX:b:t=+:color=blue	!	!	!	!	!	!
.	.	.	8en/)	-eć	.	.
=74	=74	=74	=74	=74	=74	=74
4F 4FF/	4f 4A-/	.	4f,/	toń.	.	.
*	*	*	*2\right	*	*	*
!	!	!	!	!	!	!LO:HP:b
4r	[>2cc [<2c/	<[	[>2cc\	ach!	.	<
4A-\	.	.	.	.	.	.
!!LO:LB:g=original
=75	=75	=75	=75	=75	=75	=75
*^	*^	*	*	*	*	*
[<2G/	4r	(>4cc] 4e- 4c/]	2ryy	.	8cc\L]	.	.	[
.	.	.	.	.	(>8ee-\	.	.	.
*ped	*	*	*	*	*	*	*	*
.	2EE-\	4dd- 4f 4d-/	.	>	8dd-\	.	.	.
!	!	!	!	!	!	!	!	!LO:HP:b
.	.	.	.	.	8b-\J	.	.	>
4G/]	.	8f/L)	4d-\	.	8f/L	.	.	.
*Xped	*	*	*	*	*	*	*	*
.	.	8f-X/J	.	]]	8f-X/J)	.	.	]]
*	*	*v	*v	*	*	*	*	*
=76	=76	=76	=76	=76	=76	=76	=76
!	!	!LO:TX:b:i:t=in tempo	!	!LO:TX:a:i:t=in tempo	!	!	!
(>4AA-/	2.AA-\	2.e- 2.c/	.	8e-/	ah	.	.
.	.	.	.	8f/	u-	.	.
4E-/	.	.	.	4g/	-cie-	.	.
4A-/)	.	.	.	4a-/	-knę	.	.
=77	=77	=77	=77	=77	=77	=77	=77
[>2G/	4r	2.f-X 2.d-/	.	4an/	ja	.	.
.	2AA-\	.	.	4cc\	so-	.	.
4G/]	.	.	.	4b-\	-bie	.	.
=78	=78	=78	=78	=78	=78	=78	=78
2.A-/	2AA-\	4r	.	8cc\	Uk-	.	.
.	.	.	.	8dd-\	-ryć	.	.
.	.	2a- 2e- 2c/	.	(>8ddn\L	się	.	.
.	.	.	.	8ff\J	.	.	.
.	4C\	.	.	8ee-\)	.	.	.
.	.	.	.	8a-\	z cier-	.	.
*v	*v	*	*	*	*	*	*
!!LO:LB:g=original
=79	=79	=79	=79	=79	=79	=79
.	.	.	8qcc/	.	.	.
*	*^	*	*	*	*	*
2.G 2.E-\	4r	4ryy	.	8.b-\	-pie-	.	.
.	.	.	.	16an\	-nia	.	.
!	!	!	!	!	!	!	!LO:HP:b
.	(>4b-/	2e- 2d-\	>	4b-\	łzą....	.	>
.	4bn/)	.	]]	4bn\	.	.	]
*	*v	*v	*	*	*	*	*
=80	=80	=80	=80	=80	=80	=80
!	!	!LO:DY:rj	!	!	!	!LO:DY:b:rj
*ped	*	*	*	*	*	*
4AA- 4AAA-/	4cc 4a- 4e- 4c/	f	8cc\	O	lub {O	f
.	.	.	8ee-\	nie,	.	.
!	!LO:N:vis=2.	!	!	!	!	!
2G-X 2E- 2AA-\	2cc 2a- 2e- 2c/	sf	(>4aa-\	te-	.	.
*Xped	*	*	*	*	*	*
.	.	.	8b-X\)	.	te-	.
.	.	.	8cc\	-go	-go	.
=81	=81	=81	=81	=81	=81	=81
*^	*^	*	*	*	*	*
*	*	*	*^	*	*	*	*	*
2F/	2.AA-\	(>4ee-/	2.a-/	4e-\	.	(>4ee-\	nie	.	.
!	!	!	!	!	!	!	!	!	!LO:HP:b
.	.	4dd-/	.	4d-\	>	4dd-\	zro-	.	>
4E-/	.	4cc/)	.	4c\	]]	4cc\)	-bię,	.	]
*	*	*	*v	*v	*	*	*	*	*
!!LO:LB:g=original
=82	=82	=82	=82	=82	=82	=82	=82	=82
!	!	!	!	!	!	!	!	!LO:DY:b:rj
8F-X/L	2AA-\	8b-L 8g 8d-X/	2ryy	p	(8b-'\	Bo	.	p
8E-/J	.	8a-J 8c/	.	.	8cc'\	śmiech	.	.
4G/	.	4f-X 4d-/	.	.	8dd-'\	pój-	.	.
.	.	.	.	.	8dd-'\	-dzie	.	.
(<4E-;<\	4EE-\	8e-;>/L	4G\	.	(>8cc;>\	w ślad	.	.
.	.	8d-/J	.	.	8b-\))	za	.	.
*v	*v	*	*	*	*	*	*	*
*	*v	*v	*	*	*	*	*
=83	=83	=83	=83	=83	=83	=83
!	!LO:TX:a:i:t=in tempo	!	!	!	!	!
8.E-L 8.AA-\)	2c 2A-/	<	2a-/	mną!	.	.
16E-Jk 16AA-\	.	.	.	.	.	.
4E- 4AA-\	.	.	.	.	.	.
4E- 4AA-\	4r	[	4r	.	.	.
=84	=84	=84	=84	=84	=84	=84
!	!	!LO:DY:rj	!	!	!	!
*ped	*	*	*	*	*	*
8AAn 8AAAn/	8.gg-XL 8.ee- 8.cc 8.g-X^^>\	ff	2.r	.	.	.
8r	.	.	.	.	.	.
.	16ff\Jk	.	.	.	.	.
!	!LO:TUP:a:problem:klamra łukowa	!	!	!	!	!
4c 4G-X 4E-\	12ee-\L	.	.	.	.	.
.	12ff\	.	.	.	.	.
.	12ee-\J	.	.	.	.	.
4r	8ddn\L	.	.	.	.	.
*Xped	*	*	*	*	*	*
.	8ee-\J	.	.	.	.	.
=85	=85	=85	=85	=85	=85	=85
*ped	*	*	*	*	*	*
4BB- 4BBB-/	(>8.ggnL 8.ee- 8.b- 8.gn^^>\	.	2.r	.	.	.
.	16ff\Jk	.	.	.	.	.
.	16qqee-/LL	.	.	.	.	.
.	16qqff/JJ	.	.	.	.	.
4B- 4Gn 4E-\	8ee-\L	.	.	.	.	.
.	8ddn\)	.	.	.	.	.
4B- 4G 4E-\	8ee-\	.	.	.	.	.
*Xped	*	*	*	*	*	*
.	8gg\J	.	.	.	.	.
!!LO:PB:g=original
=86	=86	=86	=86	=86	=86	=86
.	8qddn/	.	.	.	.	.
*ped	*	*	*	*	*	*
4BB- 4BBB-/	8ccc'\L	.	2.r	.	.	.
.	16r	.	.	.	.	.
.	(>16aan\K	.	.	.	.	.
4dn 4A- 4F\	8bb-\	.	.	.	.	.
.	8aa-X\	.	.	.	.	.
4d 4A- 4F\	8ff\	.	.	.	.	.
*Xped	*	*	*	*	*	*
.	8dd\J	.	.	.	.	.
=87	=87	=87	=87	=87	=87	=87
*	*^	*	*	*	*	*
*ped	*	*	*	*	*	*	*
4dn 4A- 4F\	8b-/L	4ryy	.	2.r	.	.	.
!	!LO:TX:b:i:t=poco rit&colon;	!	!	!	!	!	!
.	8bn/	.	.	.	.	.	.
4BB- 4BBB-\	8ddn/	4a- 4f\	.	.	.	.	.
.	8cc/J	.	.	.	.	.	.
*Xped	*	*	*	*	*	*	*
4A- 4BB-\	8f/L	4dn\	.	.	.	.	.
.	8f#X/J)	.	.	.	.	.	.
*	*v	*v	*	*	*	*	*
=88||	=88||	=88||	=88||	=88||	=88||	=88||
*k[b-e-a-]	*k[b-e-a-]	*	*k[b-e-a-]	*	*	*
!	!	!	!LO:TX:a:i:t=Primo tempo	!	!	!
!	!LO:TX:a:i:t=Primo tempo	!	!LO:TUP:a:problem:klamra łukowa	!	!	!
!	!	!LO:DY:rj	!	!	!	!LO:DY:b:rj
*ped	*	*	*	*	*	*
4E- 4EE-^/	4g 4e- 4B- 4G^/	f	12g/L	Co	.	f
.	.	.	12a-/J	.	.	.
.	.	.	12an/	raz	.	.
4BB- 4BBB-^/	4b- 4g 4e- 4B-^/	.	4b-\	hu-	.	.
4GG 4GGG^/	4ee- 4b- 4e-^/	.	4ee-\	-czniej	.	.
*Xped	*	*	*	*	*	*
=89	=89	=89	=89	=89	=89	=89
*	*^	*	*	*	*	*
*ped	*	*	*	*	*	*	*
4AA- 4AAA-/	8.gg/L	4cc 4a-\	.	8.gg\L	i	.	.
.	16ff/Jk	.	.	16ff\Jk	.	.	.
!	!	!	!LO:DY:b=2	!	!	!	!
2f 2c 2A-\	2cc/	2a-\	sf	4cc^>\	gło-	.	.
*Xped	*	*	*	*	*	*	*
.	.	.	.	4ff\	-śniej,	.	.
*	*v	*v	*	*	*	*	*
!!LO:LB:g=original
=90	=90	=90	=90	=90	=90	=90
2BB- 2BBB-/	4r	.	8.ee-\	sły-	.	.
.	.	.	16dd\	-chać	.	.
.	4a- 4d 4B-/	.	4a-/	ze-	.	.
.	.	.	16qqb-/LL	.	.	.
.	.	.	16qqa-/JJ	.	.	.
4r	4a- 4d 4B-/	.	8g/	.	.	.
.	.	.	8a-/	-wsząd	.	.
=91	=91	=91	=91	=91	=91	=91
2E- 2EE-/	4r	.	8.cc\	gwar	.	.
.	.	.	16b-\	i	.	.
.	4g 4e- 4B-/	.	4g/	szum,	.	.
4r	4g 4e- 4B-/	.	4r	.	.	.
=92	=92	=92	=92	=92	=92	=92
2.C 2.CC/	4r	.	8.g/	grzmi	.	.
.	.	.	16a-/	mu-	.	.
.	4a- 4e- 4A-/	.	4.ee-\	-zy-	.	.
.	4a- 4e- 4A-/	.	.	.	.	.
.	.	.	8a-\	-ka	.	.
=93	=93	=93	=93	=93	=93	=93
2.BB- 2.BBB-/	4r	.	8.g/L	do-	.	.
.	.	.	16e-/Jk	.	.	.
.	4g 4e- 4B-/	.	4cc\	-no-	.	.
.	4g 4e- 4B-/	.	4b-\	-śniej,	.	.
!!LO:LB:g=original
=94	=94	=94	=94	=94	=94	=94
.	.	.	8qb-/	.	.	.
2.BB- 2.BBB-/	4r	.	8.a-/	Ró-	.	.
.	.	.	16g/	-żno-	.	.
.	4a- 4d 4B-/	.	4.a-/	-bar-	.	.
.	4a- 4d 4B-/	.	.	.	.	.
.	.	.	8an/	-wny	.	.
=95	=95	=95	=95	=95	=95	=95
.	.	.	8qcc/	.	.	.
2.GG 2.GGG/	4r	.	8.b-\	mi-	.	.
.	.	.	16an\	-ga	.	.
.	4b- 4e- 4B-/	.	4b-\	tłum...	.	.
.	4b- 4e- 4B-/	.	4r	.	.	.
=96	=96	=96	=96	=96	=96	=96
*	*^	*	*	*	*	*
*ped	*	*	*	*	*	*	*
4AA- 4AAA-/	8.bnL 8.g/	4ryy	ff	8.bn\	Grzmi	.	ff
.	16ccJk 16a-/	.	.	16cc\	mu-	.	.
4f 4c 4A-\	4.gg/	2cc 2a-\	sf	4.gg\	-zy-	.	.
*Xped	*	*	*	*	*	*	*
4f 4c 4A-\	.	.	.	.	.	.	.
.	8ff/	.	.	8ff\	-ka	.	.
=97	=97	=97	=97	=97	=97	=97	=97
!	!LO:TUP:a:problem:klamra łukowa	!	!	!LO:TUP:a:problem:klamra łukowa	!	!	!
*ped	*	*	*	*	*	*	*
4BB- 4BBB-/	12dd/L	4g\	.	12dd\L	do-	.	.
.	12ff/	.	.	12ff\	.	.	.
.	12ee-/J	.	.	12ee-\J	.	.	.
4e- 4B- 4G\	4b-/	2ryy	.	4b-\	-no-	.	.
*Xped	*	*	*	*	*	*	*
4e- 4B- 4G\	4g/	.	.	4g\	-śniej,	.	.
!LO:TX:a:t=P:problem:× dopisane niebieską kredką	!	!	!	!	!	!	!
!LO:TX:b:t=×:color=blue	!	!	!	!	!	!	!
*	*v	*v	*	*	*	*	*
!!LO:LB:g=original
=98	=98	=98	=98	=98	=98	=98
4BB- 4BBB-/	4r	.	8b-/	Ró-	.	.
.	.	.	8bn/	-żno-	.	.
4r	4d 4B- 4A-/	.	8cc\	-bar-	.	.
.	.	.	8g/	-wny	.	.
4BB- 4BBB-/	4d 4B- 4A-/	.	8.a-/	mi-	.	.
.	.	.	16d/	-ga	.	.
=99	=99	=99	=99	=99	=99	=99
4EE-/	4e- 4B- 4G/	.	4e-/	tłum.	.	.
8EE- 8EEE-/	8ee- 8b- 8g 8e-/	sf	4r	.	.	.
8r	8r	.	.	.	.	.
4r	4r	.	4r	.	.	.
=100	=100	=100	=100	=100	=100	=100
!	!	!LO:DY:t=p.	!LO:TX:a:i:t=smętnie	!	!	!LO:DY:b:rj
2.BBn 2.BBBn/	4r	p	8g/	Wtem	.	p
.	.	.	8d/	wśród	.	.
.	4g 4d 4G/	.	(<4.g/	smu-	.	.
.	4f 4d 4G/	.	.	.	.	.
.	.	.	8f/)	-tku	.	.
=101	=101	=101	=101	=101	=101	=101
2.C 2.CC/	4r	.	8e-/L	tę-	.	.
.	.	.	8f/J	.	.	.
.	4e- 4c 4G/	.	4g/	-skno-	.	.
.	4e- 4c 4G/	.	4cc\	-ty,	.	.
!!LO:PB:g=original
=102	=102	=102	=102	=102	=102	=102
2.D 2.DD/	4r	.	8bn\	Myśl	.	.
.	.	.	8cc\	się	.	.
.	4f 4Bn 4G/	.	4dd\	w złu-	.	.
.	.	.	8qff/	.	.	.
.	4f 4B 4G/	.	8ee-\	.	.	.
.	.	.	8dd\	-dy	.	.
=103	=103	=103	=103	=103	=103	=103
.	.	.	8qdd/	.	.	.
2.E- 2.EE-/	4r	.	8.cc\	wią-	.	.
.	.	.	16bn\	-że	.	.
.	4e- 4c 4G/	.	4cc\	nić:	.	.
.	4g 4e- 4c/	.	4g\	.	.	.
=104	=104	=104	=104	=104	=104	=104
2.F 2.FF/	4r	.	8a-\	Świat	.	.
.	.	.	8bn\	tak	.	.
.	4a- 4c/	.	4cc\	pe-	.	.
.	4a- 4f 4c/	.	8a-\L	-łen	.	.
.	.	.	8f\J	.	.	.
!!LO:LB:g=original
=105	=105	=105	=105	=105	=105	=105
2.E- 2.EE-/	4r	.	8g/L	o-	.	.
.	.	.	8bn/J	.	.	.
.	4g 4c/	.	4cc^>\	-cho-	.	.
.	4g 4e- 4c/	.	4g\	-ty,	.	.
=106	=106	=106	=106	=106	=106	=106
2D 2DD/	4r	.	8f/	Czyż	.	.
.	.	.	8g/	mnie	.	.
.	.	.	8qb-/	.	.	.
.	4a- 4f 4c/	.	4.a-/	je-	.	.
4GG/	4g 4f 4Bn/	.	.	.	.	.
.	.	.	8Bn/	-dnej	.	.
=107	=107	=107	=107	=107	=107	=107
2.C 2.CC/	4r	.	8c/	smu-	.	.
.	.	.	8e-/	-tną	.	.
.	4g 4e- 4c/	.	4g/	być?	.	.
.	4g 4e- 4c/	.	4r	.	.	.
=108	=108	=108	=108	=108	=108	=108
2F 2FF/	4r	<	8a-\	Świat	.	.
!	!	!	!	!	!	!LO:HP:a
.	.	.	8bn\	tak	.	<
.	4a- 4f 4c/	.	4.cc\	pe-	.	.
4r	4a- 4f 4c/	[	.	.	.	.
.	.	.	8dd\	-łen	.	[
!!LO:LB:g=original
=109	=109	=109	=109	=109	=109	=109
2G 2GG/	4r	.	8ee-\L	o-	.	.
.	.	.	8cc\J	.	.	.
.	4g 4e- 4c/	.	4g^>/	-cho-	.	.
4r	4g 4e- 4c/	.	4e-/	-ty,	.	.
=110	=110	=110	=110	=110	=110	=110
2G 2GG/	4r	.	8d/	Czyż	.	.
!	!	!	!	!	!	!LO:HP:a
.	.	.	8e-/	mnie	.	>
!	!LO:TX:a:i:t=poco rit&colon;	!	!	!	!	!
.	4f#X 4d 4c/	>	4d/	je-	.	.
4r	4f# 4d 4c/	]]	4an/	-dnej	.	]]
=111	=111	=111	=111	=111	=111	=111
.	.	.	8qan/	.	.	.
2G 2GG/	4r	.	8g/	smu-	.	.
.	.	.	8f#X/	-tną	.	.
.	4g 4d 4Bn/	.	4g/	być?	.	.
4r	4g 4d 4B/	.	4r	.	.	.
=112	=112	=112	=112	=112	=112	=112
.	8qan/	.	.	.	.	.
*^	*	*	*	*	*	*
4r	4ryy	8g/L	.	2.r	.	.	.
.	.	8f#X/J	.	.	.	.	.
(>4BBn 4GG/	2GG\	2g/	.	.	.	.	.
4C 4AAn/)	.	.	.	.	.	.	.
*v	*v	*	*	*	*	*	*
!!LO:LB:g=original
=113	=113	=113	=113	=113	=113	=113
*^	*	*	*	*	*	*
!	!	!	!LO:DY:rj	!	!	!	!
!	!	!	!LO:HP:a	!	!	!	!
.	.	8qAn/	p >	.	.	.	.
*	*	*	*^	*	*	*	*
!LO:TX:b:i:t=rit&colon;	!	!	!	!	!	!	!	!
4r	4ryy	8G/L	.	.	2.r	.	.	.
!	!	!	!	!LO:HP:a:t=dim&colon;	!	!	!	!
.	.	8F#X/J	.	>	.	.	.	.
!LO:TX:t=P:problem:przed krzyżykiem stojącym przy nucie AA jest dodatkowo kasownik	!	!	!	!	!	!	!	!
(>4C#X 4AA-/	2GG#X\	2G/	.	.	.	.	.	.
4D 4BBn/)	.	.	.	.	.	.	.	.
*v	*v	*	*	*	*	*	*	*
=114||	=114||	=114||	=114II	=114||	=114||	=114||	=114||
*k[]	*k[]	*	*	*k[]	*	*	*
!	!LO:TX:a:i:t=Żywo i wesoło	!	!	!LO:TX:a:i:t=Żywo i wesoło	!	!	!
!	!	!	!LO:DY:t=pp.	!	!	!	!
4C 4GG 4CC'\	2.r	]	pp	2.r	.	.	.
*	*	*v	*v	*	*	*	*
4C 4GG 4CC'\	.	.	.	.	.	.
4C 4GG 4CC'\	.	.	.	.	.	.
=115	=115	=115	=115	=115	=115	=115
4C 4GG 4CC'\	2.r	.	2.r	.	.	.
4C 4GG 4CC'\	.	.	.	.	.	.
4C 4GG 4CC'\	.	.	.	.	.	.
!!LO:PB:g=original
=116||	=116||	=116||	=116||	=116||	=116||	=116||
4C 4GG 4CC\	8E<'>/	.	2.r	.	.	.
.	8rA<	.	.	.	.	.
4C 4GG 4CC\	2G< 2E<^^>/	.	.	.	.	.
4C 4GG 4CC\	.	.	.	.	.	.
=117	=117	=117	=117	=117	=117	=117
*	*^	*	*	*	*	*
!	!LO:TUP:a:problem:klamra łukowa	!	!	!	!	!	!
4C 4FF#X 4CC\	12A</L	4D#X</	.	2.r	.	.	.
.	12B</	.	.	.	.	.	.
.	12A</J	.	.	.	.	.	.
4C 4GG 4CC\	2G< 2E<^^>/	2ryy	.	.	.	.	.
4C 4GG 4CC\	.	.	.	.	.	.	.
*	*v	*v	*	*	*	*	*
=118	=118	=118	=118	=118	=118	=118
!	!LO:TUP:a:problem:klamra łukowa	!	!	!	!	!
4C 4GG 4CC\	12E</L	.	2.r	.	.	.
.	12F</	.	.	.	.	.
.	12F#X</J	.	.	.	.	.
4C 4GG 4CC\	2G< 2E<^^>/	.	.	.	.	.
4C 4GG 4CC\	.	.	.	.	.	.
=119	=119	=119	=119	=119	=119	=119
4C#X 4FF#X 4CC\	8c<L 8D#X<'>/	.	2.r	.	.	.
.	16r<	.	.	.	.	.
.	16A</Jk	.	.	.	.	.
4C# 4GG 4CC\	2G< 2E<^^>/	.	.	.	.	.
4C# 4GG 4CC\	.	.	.	.	.	.
!!LO:LB:g=original
=120	=120	=120	=120	=120	=120	=120
!	!	!LO:DY:rj	!	!	!	!LO:DY:b:rj
4GG 4CC'/	4e 4G'/	p	8e'/	To	.	p
.	.	.	8e'/	on	.	.
4AA 4CC'/	4e 4F#X'/	.	4e'/	kro-	.	.
4BB 4CC'/	4d 4Fn'/	.	4d'/	-czy	.	.
=121	=121	=121	=121	=121	=121	=121
!	!LO:TX:a:i:t=crescendo poco a poco	!LO:HP:a:i:t=crescendo poco a poco	!	!	!	!
4C 4CC'<\	4c< 4E<'>/	<	8.c/L	we-	.	.
.	.	.	16e/Jk	.	.	.
4C 4CC'>\	4e 4c 4G'>/	.	4g/	-so-	.	.
*	*	*^	*	*	*	*
4C 4CC'>\	4d#X 4c 4A'>/	.	sf	4f#X/	-ło,	.	.
*	*	*v	*v	*	*	*	*
=122	=122	=122	=122	=122	=122	=122
!	!	!	!LO:TUP:b:problem:klamra łukowa	!	!	!
4C 4CC'\	4e 4c 4G'>/	.	12g/L	I	.	.
.	.	.	12a/J	.	.	.
.	.	.	12b/	pod-	.	.
4C 4CC'\	4e 4c 4G'>/	.	4cc\	-cho-	.	.
4C 4CC'\	4d#X 4c 4F#X'>/	[sf	4a\	-dzi	.	.
=123	=123	=123	=123	=123	=123	=123
4C 4CC'\	4e 4c 4G'>/	.	8.g/	bliz-	.	.
.	.	.	16e/	-ko	.	.
4C 4CC'\	4e 4c 4G'>/	.	2g/	tuż:	.	.
4C 4CC'\	4e 4c 4G'>/	.	.	.	.	.
!!LO:LB:g=original
=124	=124	=124	=124	=124	=124	=124
!	!	!	!LO:TUP:b:problem:klamra łukowa	!	!	!
2AA 2AAA/	4e 4c 4A/	.	12e/L	Czas	.	.
.	.	.	12a/	.	.	.
.	.	.	12cc/J	.	.	.
.	2a 2e 2c/	.	4ee\	nam	.	.
8BBL 8BBB\	.	.	8dd\L	się	.	.
8CJ 8CC\	.	.	8cc\J	.	.	.
=125	=125	=125	=125	=125	=125	=125
8.DL 8.DD'/	8.gL 8.d 8.B'/	.	8.b\	wmie-	.	.
16DJk 16DD/	16gJk 16d 16B/	.	16d/	-szać	.	.
4D 4DD'/	4g 4d 4B'/	.	4g/	w ko-	.	.
4D 4DD'/	4g 4d 4B'/	.	4b\	-ło...	.	.
=126	=126	=126	=126	=126	=126	=126
!	!	!LO:DY:rj	!	!	!	!LO:DY:b:rj
2.D 2.DD/	4r	f	8dd\	Te-	.	f
.	.	.	8dd#X\	-raz	.	.
!	!LO:TX:b:i:t=poco rit&colon;	!	!LO:TX:b:t=poco rit&colon;	!	!	!
.	4f#X 4d 4c 4A/	.	8ff#X\	jam	.	.
.	.	.	8ee\	szczę-	.	.
.	4f# 4d 4c 4A/	.	(>8.cc\	-śli-	.	.
.	.	.	16f#X/)	-wą	.	.
!!LO:LB:g=original
=127	=127	=127	=127	=127	=127	=127
!	!LO:TX:a:i:t=in tempo.	!	!	!	!	!
2G 2GG\	4r	p	4g,/	już!	.	.
.	4g 4d 4B/	.	2g/	ah	.	.
4r	4g 4d 4B/	.	.	.	.	.
=128	=128	=128	=128	=128	=128	=128
2G-X 2GG-X\	4r	.	4r	.	.	<
.	4a-X 4e-X 4c/	.	2a-X/	tak!	.	.
4r	4a- 4e- 4c/	.	.	.	.	.
=129	=129	=129	=129	=129	=129	=129
2Fn 2FFn\	4r	.	4r	.	.	.
.	4an 4e-X 4c/	.	2an/	ah	.	[[
4r	4a 4e- 4c/	.	.	.	.	.
=130	=130	=130	=130	=130	=130	=130
*tremolo	*	*	*	*	*	*
!	!	!LO:DY:rj	!	!	!	!LO:DY:b:rj
*ped	*	*	*	*	*	*
16BBB-X/LL	8.r	p	[>2.b-XTT/	tak!	.	p
16BB-X/	.	.	.	.	.	.
16BBB-/	.	.	.	.	.	.
!LO:TX:b:i:t=trem.	!	!	!	!	!	!
16BB-X/	16b-X 16f 16d 16B-X/	.	.	.	.	.
16BBB-X/	4b- 4f 4d 4B-/	.	.	.	.	.
16BB-X/	.	.	.	.	.	.
16BBB-X/	.	.	.	.	.	.
16BB-X/	.	.	.	.	.	.
16BBB-X/	4bb-X 4ff 4dd 4b-X\	.	.	.	.	.
*Xped	*	*	*	*	*	*
16BB-X/	.	.	.	.	.	.
16BBB-X/	.	.	.	.	.	.
16BB-X/JJ	.	.	.	.	.	.
*Xtremolo	*	*	*	*	*	*
!!LO:PB:g=original
=131	=131	=131	=131	=131	=131	=131
*tremolo	*	*	*	*	*	*
!	!	!	!	!	!	!LO:HP:a
*ped	*	*	*	*	*	*
16BBB-X/LL	8.r	<	2.b-XTT\_>	.	.	<
16BB-X/	.	.	.	.	.	.
16BBB-X/	.	.	.	.	.	.
16BB-X/	16b-X 16g-X 16e-X 16B-X/	.	.	.	.	.
16BBB-X/	4b- 4g- 4e- 4B-/	.	.	.	.	.
16BB-X/	.	.	.	.	.	.
16BBB-X/	.	.	.	.	.	.
16BB-X/	.	.	.	.	.	.
16BBB-X/	4bb-X 4gg-X 4ee-X 4b-X\	.	.	.	.	.
*Xped	*	*	*	*	*	*
16BB-X/	.	.	.	.	.	.
16BBB-X/	.	.	.	.	.	.
16BB-X/JJ	.	[[	.	.	.	.
=132	=132	=132	=132	=132	=132	=132
*ped	*	*	*	*	*	*
16BBB-X/LL	8.r	.	2.b-XTT\_>	.	.	[
16BB-X/	.	.	.	.	.	.
16BBB-X/	.	.	.	.	.	.
16BB-X/	16b-X 16gn 16en 16B-X/	.	.	.	.	.
16BBB-X/	4b- 4g 4e 4B-/	.	.	.	.	.
16BB-X/	.	.	.	.	.	.
16BBB-X/	.	.	.	.	.	.
16BB-X/	.	.	.	.	.	.
16BBB-X/	4bb-X 4ggn 4een 4b-X\	.	.	.	.	.
*Xped	*	*	*	*	*	*
16BB-X/	.	.	.	.	.	.
16BBB-X/	.	.	.	.	.	.
16BB-X/JJ	.	.	.	.	.	.
.	.	.	8qqan/	.	.	.
*Xtremolo	*	*	*	*	*	*
=133	=133	=133	=133	=133	=133	=133
4BB-X 4BBB-X/	8.bb-XL 8.aa-X 8.ff 8.b-X\	f <	8b-X\]	.	.	.
.	.	.	8r	.	.	.
.	16bb-K 16b-\	.	.	.	.	.
4AA-X 4AAA-X/	8.bbn 8.bn\	.	4r	.	.	.
.	16cccK 16cc\	.	.	.	.	.
4FF 4FFF/	8.ccc#X 8.cc#X\	.	4r	.	.	.
.	16dddJk 16dd\	[[	.	.	.	.
!!LO:LB:g=original
=134	=134	=134	=134||	=134	=134	=134
*k[b-e-a-]	*k[b-e-a-]	*	*k[b-e-a-]	*	*	*
!	!	!	!LO:TX:a:i:t=Raźno.	!	!	!
!	!	!LO:DY:rj	!	!	!	!LO:DY:b:rj
*ped	*	*	*	*	*	*
8EE- 8EEE-/	8eee- 8bb- 8gg 8ee-\	ff	8.ee-\	La	.	ff
8r	8r	.	.	.	.	.
.	.	.	16dd\	la	.	.
.	.	.	8qff/	.	.	.
2c 2An 2F#X 2E-\	2ccc 2ff#X 2ee- 2cc\	sf	4ee-^^>\	la	.	.
*Xped	*	*	*	*	*	*
.	.	.	8cc\L	.	.	.
.	.	.	8an\J	.	.	.
=135	=135	=135	=135	=135	=135	=135
.	.	.	8qcc/	.	.	.
*ped	*	*	*	*	*	*
8EE-/	8bb- 8gg 8ee- 8b-\	.	8.b-\	la	.	.
8r	8r	.	.	.	.	.
.	.	.	16an\	la	.	.
2e- 2B- 2E-\	2gg 2ee- 2b- 2g\	.	8b-/L	la	.	.
*Xped	*	*	*	*	*	*
.	.	.	8e-/J	.	.	.
.	.	.	4g^^>/	.	.	.
=136	=136	=136	=136	=136	=136	=136
8E- 8EE-/	4r	.	8.g/	la	.	.
8r	.	.	.	.	.	.
.	.	.	16a-X/	la	.	.
8D-X 8DD-X/	8g 8e- 8B-/	.	(<8b-'/L	la	.	.
8r	8r	.	8bn'/	.	.	.
8C 8CC/	8g 8en 8B-/	.	8cc'/	.	.	.
8r	8r	.	8g'/J)	.	.	.
=137	=137	=137	=137	=137	=137	=137
.	.	.	8qb-/	.	.	.
2F 2FF/	4r	.	8.a-/	la	.	.
.	.	.	16c/	la	.	.
.	4f 4c 4A-/	.	4f^>/	la	.	.
4r	4r	.	4r	.	.	.
!!LO:LB:g=original
=138	=138	=138	=138	=138	=138	=138
!	!	!	!LO:TUP:a:problem:klamra łukowa	!	!	!
!	!	!	!	!	!	!LO:DY:b:rj
4AA- 4AAA-/	4r	p	12bn\L	la	.	p
.	.	.	12dd\	.	.	.
.	.	.	(>12cc\J	.	.	.
4r	8f 8c 8A-/	.	8.gg'>\)	.	.	.
.	8r	.	.	.	.	.
.	.	.	16een\	la	.	.
4r	4f 4c-X 4A-^>/	.	4ff^>\	la	.	.
=139	=139	=139	=139	=139	=139	=139
!	!	!	!LO:TUP:a:problem:klamra łukowa	!	!	!
4BB- 4BBB-/	4r	.	12an\L	la	.	.
.	.	.	12cc\	.	.	.
.	.	.	(>12b-\J	.	.	.
4r	8e- 8B- 8G/	.	8.ff'>\)	.	.	.
.	8r	.	.	.	.	.
.	.	.	16dd\	la	.	.
4r	4e- 4B- 4G-X^>/	.	4ee-^>\	la	.	.
=140	=140	=140	=140	=140	=140	=140
!	!	!LO:DY:rj	!	!	!	!LO:DY:b:rj
8FF 8FFF/	8e- 8An 8F/	f	8.f\	la	.	f
8r	8r	.	.	.	.	.
.	.	.	16ee-\	la	.	.
!	!	!	!LO:TUP:a:problem:klamra łukowa	!	!	!
2F 2FF/	2an 2g 2f/	sf	12ee-^>\L	la	.	.
.	.	.	12ff\	.	.	.
.	.	.	12ee-\J	.	.	.
.	.	.	8.dd\	.	.	.
.	.	.	16cc\	la	.	.
=141	=141	=141	=141	=141	=141	=141
!	!	!LO:DY:rj	!	!	!	!
8.BB-'/L	8.b-L 8.f 8.d'/	ff	4b-/	la	.	.
16BB-Jk 16BBB-'/	16b-Jk 16B-'/	.	.	.	.	.
4BB- 4BBB-'/	4b- 4B-'/	.	4r	.	.	.
4BB- 4BBB-'/	4b- 4B-'/	.	4r	.	.	.
!!LO:LB:g=original
=142	=142	=142	=142	=142	=142	=142
!	!	!	!	!	!	!LO:DY:b:rj
.	.	.	16qqb-/LL	.	.	p
.	.	.	16qqcc/JJ	.	.	.
2BB- 2BBB-/	4r	p	8.b-\	la	.	.
.	.	.	16an\	la	.	.
!	!LO:TX:b:i:t=cre_scen_do:problem:dynamics with line extensions	!LO:HP:b:i:t=cre_scen_do:ext=ud	!	!	!	!
.	2f 2d 2B-/	<	(>8b-\L	la	.	.
.	.	.	8aa-X\)	.	.	.
!	!	!	!LO:TX:b:i:t=cre _ scen _ do:problem:dynamics with line extensions	!	!	!LO:HP:b:i:t=cre_scen_do:ext=ud
4AA- 4AAA-/	.	.	8cc\	.	.	<
.	.	.	8dd\J	.	.	.
=143	=143	=143	=143	=143	=143	=143
!LO:TX:t=P:problem:LO:N:vis=8	!	!	!	!	!	!
.	.	.	8qff/	.	.	.
8.GGL 8.GGG/	8.gL 8.e- 8.B-/	.	8.ee-\	la	.	.
16GGJk 16GGG/	16gJk 16e- 16B-/	.	16dd\	la	.	.
4GG 4GGG/	4g 4e- 4B-/	.	4ee-\	la	.	.
4GG 4GGG/	4g 4e- 4B-/	.	4r	.	.	.
=144	=144	=144	=144	=144	=144	=144
.	.	.	16qqcc/LL	.	.	.
.	.	.	16qqdd/JJ	.	.	.
2C 2CC/	4r	.	8.cc\	la	.	.
.	.	.	16bn\	la	.	.
.	2g 2en 2c/	[[	(>8cc\L	la	.	[
.	.	.	8bb-X\)	.	.	.
4BB- 4BBB-/	.	.	8dd\	.	.	.
.	.	.	8een\J	.	.	.
=145	=145	=145	=145	=145	=145	=145
.	.	.	8qgg/	.	.	.
8.AA-L 8.AAA-/	8.a-L 8.f 8.c/	.	8.ff\	la	.	.
16AA-Jk 16AAA-/	16a-Jk 16f 16c/	.	16een\	la	.	.
4AA- 4AAA-/	4a- 4f 4c/	.	4ff\	la	.	.
4AA- 4AAA-/	4a- 4f 4c/	.	4r	.	.	.
!LO:TX:a:t=P:problem:× dopisane niebieską kredką	!	!	!	!	!	!
!LO:TX:b:t=×:color=blue	!	!	!	!	!	!
!!LO:PB:g=original
=146	=146	=146	=146	=146	=146	=146
!	!	!LO:DY:rj	!LO:TX:a:i:t=leggiero	!	!	!LO:DY:b:rj
2.AAn 2.AAAn/	4r	p	8.gg-X\	la	.	p
.	.	.	16ff\	la	.	.
!	!	!	!LO:TUP:a:problem:klamra łukowa	!	!	!
.	4cc-X 4g-X 4e- 4c-X/	.	12ee-\L	la	.	.
.	.	.	12ff\	.	.	.
.	.	.	12ee-\J	.	.	.
.	4cc- 4g- 4e- 4c-/	.	8dd\L	.	.	.
.	.	.	8ee-\J	.	.	.
=147	=147	=147	=147	=147	=147	=147
2.BB- 2.BBB-/	8.r	.	2.gg-X\	.	.	.
.	16b- 16g-X 16e- 16B-/	.	.	.	.	.
!	!	!	!	!	!	!LO:HP:a
.	4b- 4g- 4e- 4B-/	.	.	.	.	>
.	4b- 4g- 4e- 4B-/	.	.	.	.	.
=148	=148	=148	=148	=148	=148	=148
*	*	*	*	*	*	*^
!	!LO:TX:a:i:t=poco lento	!	!	!	!	!	!
!	!	!	!	!	!	!	!LO:DY:b:rj
2.C-X 2.CC-X/	4rg	pp	8.ee-\	la	.	.	pp
.	.	.	16dd-X\	la	.	.	.
!	!	!	!	!LO:TUP:a:problem:klamra łukowa	!	!	!
.	4g-X 4e- 4An/	.	12cc-X\L	la	.	]	.
.	.	.	12dd-\	.	.	.	.
.	.	.	12cc-\J	.	.	.	.
.	4g- 4e- 4A/	.	8b-\L	.	.	.	.
.	.	.	8cc-\J	.	.	.	.
*	*	*	*	*	*	*v	*v
=149	=149	=149	=149	=149	=149	=149
*	*	*	*2\right	*	*	*
*	*	*^	*	*	*	*
2BB- 2BBB-/	8.r	>	.	2.ee-\	.	.	.
.	16b- 16g-X 16e- 16B-/	>	.	.	.	.	.
.	4b- 4g- 4e- 4B-/	.	.	.	.	.	.
4AAn 4AAAn/	4ccn 4g- 4e- 4cn/	]]	.	.	.	.	.
*	*	*v	*v	*	*	*	*
!!LO:LB:g=original
=150	=150	=150	=150	=150	=150	=150
!	!LO:TX:a:i:t=in tempo	!	!	!	!	!LO:DY:b:rj
*ped	*	*	*	*	*	*
8BB- 8BBB-/	4r	] p	[2.b-T\	a	.	p
8r	.	.	.	.	.	.
4r	8b- 8gn 8e-'/	<	.	.	.	.
!	!	!	!	!	!	!LO:HP:b
.	8r	.	.	.	.	<
4r	8ee- 8b- 8g'/	.	.	.	.	.
.	8r	.	.	.	.	.
=151	=151	=151	=151	=151	=151	=151
*	*^	*	*	*	*	*
8e- 8B- 8G'\	8gg\ 8ee-\ 8b-'\	8ryy	.	8ggL 8b-'\]	.	.	.
8r	16r	8ryy	.	16r	.	.	.
!	!LO:TX:b:i:t=ad libitum	!	!	!	!	!	!
.	16dd\KL	.	.	16dd\K	.	.	.
*Xped	*	*	*	*	*	*	*
4r	8ee-/	4rc	.	8ee-'\	.	.	.
.	16r	.	.	16r	.	.	.
.	16an/Jk	.	.	16an\Jk	.	.	.
4r	8b-'</	4r	.	8b-'\	.	.	.
.	8r	.	.	8r	.	.	.
*	*v	*v	*	*	*	*	*
=152	=152	=152	=152	=152	=152	=152
*	*ped	*	*	*	*	*
8BB-/	4r	.	[2.ccT\	a	.	.
8r	.	.	.	.	.	.
4r	8cc 8an 8f/	.	.	.	.	.
.	8r	.	.	.	.	.
4r	8ff 8cc 8a'\	.	.	.	.	.
.	8r	.	.	.	.	.
=153	=153	=153	=153	=153	=153	=153
*	*^	*	*	*	*	*
8f 8c 8An'\	8aan 8ff 8cc'\	8ryy	.	8aanL 8cc'\]	.	.	.
8r	16rff	8rd	.	16r	.	.	.
.	16een/KL	.	.	16een\K	.	.	.
*	*Xped	*	*	*	*	*	*
4r	8ff/	4re	.	8ff'\	.	.	.
.	16r	.	.	16r	.	.	.
.	16bn/Jk	.	.	16bn\Jk	.	.	.
4r	8cc'</	4rc	.	8cc'\	.	.	.
.	8r	.	.	8r	.	.	.
*	*v	*v	*	*	*	*	*
!!LO:LB:g=original
=154	=154	=154	=154	=154	=154	=154
!	!	!LO:HP:t=molto crescendo	!	!	!	!
*ped	*	*	*	*	*	*
4BB-\	8.r	<	2.ddt\	a	.	.
!	!	!	!	!	!	!LO:HP:b:t=molto crescendo
.	16dd 16b- 16a-X 16f/	.	.	.	.	<
4d 4B- 4A-X\	4dd 4b- 4a- 4f/	.	.	.	.	.
4d 4B- 4A-\	4dd 4b- 4a- 4f/	.	.	.	.	.
=155	=155	=155	=155	=155	=155	=155
4BB-\	8.r	.	2.ffT\	.	.	.
.	16ff 16dd 16b- 16a-/	.	.	.	.	.
4d 4B- 4A-\	4ff 4dd 4b- 4a-/	.	.	.	.	.
4d 4B- 4A-\	4ff 4dd 4b- 4a-/	.	.	.	.	.
*Xped	*	*	*	*	*	*
=156	=156	=156	=156	=156	=156	=156
*tremolo	*	*	*	*	*	*
!	!	!	!	!	!	!LO:DY:b:rj
!	!	!LO:DY:rj	!	!	!	!
*ped	*	*	*	*	*	*
16BBB-/LL	8bb-L 8ff 8dd 8a-\	f	[>2.bb-\	.	.	f
16BB-/	.	.	.	.	.	.
!LO:TX:a:i:t=trem&colon;	!LO:TX:a:i:t=allargando.	!	!	!	!	!
16BBB-/	8bb-J 8ff 8dd 8a-\	.	.	.	.	.
16BB-/	.	.	.	.	.	.
16BBB-/	4bb- 4ff 4dd 4a-\	.	.	.	.	.
16BB-/	.	.	.	.	.	.
16BBB-/	.	.	.	.	.	.
16BB-/	.	.	.	.	.	.
16BBB-/	4bb- 4ff 4dd 4a-\	.	.	.	.	.
16BB-/	.	.	.	.	.	.
16BBB-/	.	.	.	.	.	.
16BB-/JJ	.	.	.	.	.	.
*Xtremolo	*	*	*	*	*	*
=157	=157	=157	=157	=157	=157	=157
8BB- 8BBB-'</	8bb- 8ff 8dd 8a-'>\	sf	8.bb-,\]	.	.	.
8r	8r	.	.	.	.	.
.	.	.	16b-\	la	.	.
4r	4r	.	(>4..aa-;>\	.	.	.
4r;>	4r;>	.	.	.	.	.
*Xped	*	*	*	*	*	*
.	.	.	16dd\)	la	.	.
!!LO:LB:g=original
=158	=158	=158	=158	=158	=158	=158
!	!LO:TX:b:i:t=Vivo&colon;	!LO:DY:rj	!	!	!	!
*ped	*	*	*	*	*	*
4EE- 4EEE-/	8.eee-L 8.bb- 8.gg 8.ee-\	ff	4ee-^>\	la	.	.
.	16dddJk 16dd\	.	.	.	.	.
4c 4An 4F#X 4E-\	4eee- 4ee-\	.	4r	.	.	.
4c 4A 4F# 4E-\	8cccL 8cc\	.	4r	.	.	.
*Xped	*	*	*	*	*	*
.	8aanJ 8an\	.	.	.	.	.
=159	=159	=159	=159	=159	=159	=159
*ped	*	*	*	*	*	*
4EE-/	8.bb-L 8.gg 8.ee- 8.b-\	.	2.r	.	.	.
.	16aanK 16an\	.	.	.	.	.
4B- 4G 4E-\	8bb- 8b-\	.	.	.	.	.
.	8ee-J 8e-\	.	.	.	.	.
*Xped	*	*	*	*	*	*
4B- 4G 4E-\	4gg 4g\	.	.	.	.	.
=160	=160	=160	=160	=160	=160	=160
*	*^	*	*	*	*	*
*ped	*	*	*	*	*	*	*
4EE-/	8.ggL 8.ee- 8.b- 8.g\	2ryy	.	2.r	.	.	.
.	16ff#XJk 16f#X\	.	.	.	.	.	.
4B- 4G 4E-\	4gg 4g\	.	.	.	.	.	.
*Xped	*	*	*	*	*	*	*
4c 4A- 4E-\	8ee-/L	4a-\	.	.	.	.	.
.	8cc/J	.	.	.	.	.	.
*	*v	*v	*	*	*	*	*
=161||	=161||	=161||	=161	=161	=161	=161
.	8qcc	.	.	.	.	.
4.E- 4.EE-\	(<8b-L 8g'/	.	2.r	.	.	.
.	8an 8f#X'/	.	.	.	.	.
.	8b- 8g'/	.	.	.	.	.
8F#XL 8FF#X'\	8f#X'/	.	.	.	.	.
8G 8GG'\	8g'/	.	.	.	.	.
8BB-J 8BBB-'\	8B-'/J)	.	.	.	.	.
!!LO:PB:g=original
=162	=162	=162	=162	=162	=162	=162
*ped	*	*	*	*	*	*
4E- 4EE-\	4g 4G/	.	2.r	.	.	.
4r	4r	.	.	.	.	.
4r	4r	.	.	.	.	.
=163	=163	=163	=163	=163	=163	=163
4e- 4B- 4E-\	4gg 4ee- 4b- 4g/	sf	2.r	.	.	.
4r	4r	.	.	.	.	.
8.r	8.r	.	.	.	.	.
!	!LO:TX:a:i:t=Vi	!	!	!	!	!
16EE- 16EEE-/	16e- 16B- 16G 16E-/	.	.	.	.	.
=164	=164	=164	=164	=164	=164	=164
!LO:TX:a:t=P:problem:× zapisane niebieską kredką	!	!	!	!	!	!
!LO:TX:b:t=×:color=blue	!LO:TX:a:i:t=de	!	!	!	!	!
2.EE- 2.EEE-;>/	2.e- 2.B- 2.G 2.E-;>/	sf	2.r;>	.	.	.
*Xped	*	*	*	*	*	*
==	==	==	==	==	==	==
*-	*-	*-	*-	*-	*-	*-
!!!system-decoration: s1{(s2,s3)}
!!!RDF**dynam: < = "crescendo", 'fontstyle="italics"
!!!RDF**dynam: > = "dim.", 'fontstyle="italics"
!!!RDF**kern: > = above
!!!RDF**kern: < = below
!!!EED: Antoni Szymański
!!!EST: 2021-06-08
!!!ENC: Tomasz Grochalski
!!!END: 2021-05-27
